X:3
T:Duchess of Hamilton's Rant. ASH.03
T:Lady's Delight,aka. ASH.03
T:Charlie And His Trousers On,aka. ASH.03
M:6/8
L:1/8
Q:3/8=120
S:Harrison & Wall MS,Ashover,Derbyshire,1762-75
R:.Jig
O:England
A:Derbyshire
N:aka Jink About...B strain Bar 6, note "F" has "E"
N:written over it
N:in MS
Z:vmp.Mick Peat +,2003
K:A
"_Key D in MS"f | ecA def|ecA d2f|ecA ecA|BcB d2f|!
ecA def| ecA d2f|faf edc|BcB d2:|!
|:f | ecA acA|ecA d2f|ecA acA|BcB d2f|!
ecA acA|ecA d2"^NB"f|faf edc|BcB d2f :|

